X:105
T:Perth Hunt. JJo.105
S:J.Jones MS,1801,N.Shrops.
A:N Shropshire
Z:Neil Brookes
M:4/4
L:1/8
Q:3/8=120
K:C
G2 EG CGEG|CGEG ADD2|G2 EG CGEG|egdf ec”cr in MS”c::!
g|e/d/c gc acgc|e/d/c ge fddf|e/d/c gc acgc|Gfed eccg|!
e/d/c gc acgc|e/d/c ge fddf|egce fadf|Gfed ecc|]

